easyway/img/social/youtube.svg

<svg width="21" height="20" viewBox="0 0 21 20" fill="none" xmlns="http://www.w3.org/2000/svg">
<path d="M10.255 5C3.3754 5 3.255 5.62429 3.255 10.5C3.255 15.3757 3.3754 16 10.255 16C17.1346 16 17.255 15.3757 17.255 10.5C17.255 5.62429 17.1346 5 10.255 5ZM12.4985 10.7386L9.3555 12.2357C9.0804 12.3657 8.855 12.22 8.855 11.91V9.09C8.855 8.78071 9.0804 8.63429 9.3555 8.76429L12.4985 10.2614C12.7736 10.3929 12.7736 10.6071 12.4985 10.7386Z" fill="#1D1F22"/>
</svg>

<svg width="21" height="20" fill="none" xmlns="http://www.w3.org/2000/svg"><path d="M10.255 5c-6.88 0-7 .624-7 5.5s.12 5.5 7 5.5 7-.624 7-5.5-.12-5.5-7-5.5zm2.243 5.739l-3.143 1.497c-.275.13-.5-.016-.5-.326V9.09c0-.31.225-.456.5-.326l3.143 1.497c.276.132.276.346 0 .478z" fill="#1D1F22"/></svg>
